!!!!SEGMENT: pl-kk--kk-i-8--023_anonim--jesu-redemptor.krn
!!!cenid: 16xx:1164
!!!COM: Anonim
!!!COM-rismID: pe30004985
!!!CDT:
!!!CNT:
!!!OTL: Jesu Redemptor
!!!PDT:
!!!AGN: Sacred
!!!SMS-siglum: PL-Kk
!!!SMS-shelfmark: Kk.I.8
!!!SMS-shelfwork: 023 W
!!!SMS-variant:
!!!SMS-altvar:
!!!NIFC-rismSourceID: 1001148876
!!!NIFC-islandoraID: pl-kk:2296
!!!URL-pdf-islandora: https://repozytorium.nifc.pl/islandora/object/pl-kk%3A2296/datastream/PDF/view
!!!URL-scan: https://polish.musicsources.pl/pl/lokalizacje/galeria/rekopisy/6141 @EN{Scan on Polish Music Sources Website} @PL{Skany w portalu Dziedzictwo Muzyki Polskiej w otwartym dostępie}
!!!ONB-nifc: UWAGA: A (skan 0012), T1 (0037), T2 (0059), B (0082). Następny utwór: Jesu corona celsior
!!!AIN: 1 alto 1 bass 2 tenor
!!!key:
**kern	**text	**text	**text	**text	**text	**kern	**text	**text	**text	**text	**text	**kern	**text	**text	**text	**text	**text	**kern	**text	**text	**text	**text	**text
*part4	*part4	*part4	*part4	*part4	*part4	*part3	*part3	*part3	*part3	*part3	*part3	*part2	*part2	*part2	*part2	*part2	*part2	*part1	*part1	*part1	*part1	*part1	*part1
*staff4	*staff4	*staff4	*staff4	*staff4	*staff4	*staff3	*staff3	*staff3	*staff3	*staff3	*staff3	*staff2	*staff2	*staff2	*staff2	*staff2	*staff2	*staff1	*staff1	*staff1	*staff1	*staff1	*staff1
*Ibass	*	*	*	*	*	*Itenor	*	*	*	*	*	*Itenor	*	*	*	*	*	*Ialto	*	*	*	*	*
*I"BASSVS.	*	*	*	*	*	*I"TENOR 2dus.	*	*	*	*	*	*I"Tenore 1mo	*	*	*	*	*	*I"alto.	*	*	*	*	*
*I'B	*	*	*	*	*	*I'T 2	*	*	*	*	*	*I'T 1	*	*	*	*	*	*I'A	*	*	*	*	*
*clefF4	*	*	*	*	*	*clefC4	*	*	*	*	*	*clefC4	*	*	*	*	*	*clefC3	*	*	*	*	*
*k[b-]	*	*	*	*	*	*k[b-]	*	*	*	*	*	*k[b-]	*	*	*	*	*	*k[b-]	*	*	*	*	*
*F:	*	*	*	*	*	*F:	*	*	*	*	*	*F:	*	*	*	*	*	*F:	*	*	*	*	*
*M3/1	*	*	*	*	*	*M3/1	*	*	*	*	*	*M3/1	*	*	*	*	*	*M3/1	*	*	*	*	*
=1	=1	=1	=1	=1	=1	=1	=1	=1	=1	=1	=1	=1	=1	=1	=1	=1	=1	=1	=1	=1	=1	=1	=1
!LO:TX:b:t=da	!	!	!	!	!	!LO:TX:b:t=2da	!	!	!	!	!	!LO:TX:b:t=2da	!	!	!	!	!	!LO:TX:b:t=2da	!	!	!	!	!
1F\	Je-	Tu-	Qui	Hu-	Sit	1A\	Je-	Tu-	Qui	Hu-	Sit	1c\	Je-	Tu-	Qui	Hu-	Sit	1f\	Je-	Tu-	Qui-	Hu-	Sit
1D\	-su	-i	ri-	-ius	Chri-	1A\	-su	-i	ri-	-ius	Chri-	1d\	-su	-i	ri-	-ius	Chri-	1f\	-ſu	-i	-ri-	-jus	X-
1AA/	Re-	ſa-	-te	be-	-ſte	1c\	Re-	ſa-	-te	be-	-ſte	1c\	Re-	ſa-	-te	be-	-ſte	1f\	Re-	ſa-	-te	be-	-ste
=2	=2	=2	=2	=2	=2	=2	=2	=2	=2	=2	=2	=2	=2	=2	=2	=2	=2	=2	=2	=2	=2	=2	=2
1.BB-/	-dem-	-cri	mun-	-ni-	Rex	0B-\	-dem-	-cri	mun-	-ni-	Rex	1d\	-dem-	-cri	mun-	-ni-	Rex	1.d\	-dem-	-cri	Mun-	-ni-	Rex
*	*	*	*	*	*	*	*	*	*	*	*	*2\right	*	*	*	*	*	*	*	*	*	*	*
.	.	.	.	.	.	.	.	.	.	.	.	2c\	.	qua	.	.	.	.	.	.	.	.	.
2C/	.	.	.	.	.	.	.	.	.	.	.	2B-\	.	.	.	.	.	2e\	.	quâ	.	.	.
1D\	.	qua	-di	.	.	1F/	-ptor	qua	-di	-gnus	pi-	1A\	.	.	.	.	.	2f\	.	.	.	.	.
.	.	.	.	.	.	.	.	.	.	.	.	.	.	.	.	.	.	2g\	.	.	.	.	.
=3	=3	=3	=3	=3	=3	=3	=3	=3	=3	=3	=3	=3	=3	=3	=3	=3	=3	=3	=3	=3	=3	=3	=3
!LO:SIC:l:v:s=-iſ-:verse5	!	!	!	!	!	!LO:SIC:l:v:s=-iſ-:verse5	!	!	!	!	!	!	!	!	!	!	!	!	!	!	!	!	!
1AA/	-ptor	no-	gau-	-gnus	pi-	1c\	om-	no-	gau-	an-	-jſ-	1c\	-ptor	.	-di	-gnus	pi-	2a\	-ptor	No-	-di	-gnus	pi-
.	.	.	.	.	.	.	.	.	.	.	.	.	.	.	.	.	.	2f\	.	.	.	.	.
!	!	!	!	!	!	!	!	!	!	!	!	!LO:SIC:l:v:s=-iſ-:verse5	!	!	!	!	!	!	!	!	!	!	!
1.C/	om-	.	.	an-	-jſ-	1.G/	.	.	.	.	.	1.c\	om-	no-	gau-	an-	-jſ-	1.f\	om-	.	gau-	an-	-iſ-
2C/	-ni-	-mi-	-di-	-nu-	-si-	2G/	-ni-	-mi-	-di-	-nu-	-si-	2c\	-ni-	-mi-	-di-	-nu-	-si-	2e\	-ni-	-mi-	-di-	-nu-	-si-
=4	=4	=4	=4	=4	=4	=4	=4	=4	=4	=4	=4	=4	=4	=4	=4	=4	=4	=4	=4	=4	=4	=4	=4
0.FF/	-um	-nis	-a	-e	-me	0.A\	-um.	-nis	-a	-e	-me	0.c\	-um	-nis	-a	-e	-me	0.f\	-u(m)	-nis	-a	-e	-me
=5	=5	=5	=5	=5	=5	=5	=5	=5	=5	=5	=5	=5	=5	=5	=5	=5	=5	=5	=5	=5	=5	=5	=5
1F\	per-	Con-	Hu-	no-	Ti-	1A\	Per-	Con-	Hu-	no-	Ti-	1c\	per-	Con-	Hu-	no-	Ti-	1f\	pêr-	Con-	hu-	no-	Ti-
1D\	-pes	-feſ-	-ius	-bis	-bi	1B-\	-pes	-feſ-	-ius	-bis	-bi	1d\	-pes	-feſ-	-ius	-bis	-bi	1f\	-pes	-feſ-	-jus	-bis	-bi
1C/	Co-	-sor	ca-	se-	Pa-	1c\	Co-	-sor	ca-	se-	Pa-	2G/	Co-	-sor	ca-	ſe-	Pa-	1e\	.	-sor	Ca-	se-	Pa-
.	.	.	.	.	.	.	.	.	.	.	.	2A/	.	.	.	.	.	.	.	.	.	.	.
=6	=6	=6	=6	=6	=6	=6	=6	=6	=6	=6	=6	=6	=6	=6	=6	=6	=6	=6	=6	=6	=6	=6	=6
1.G\	-ro-	al-	-du-	-qui	-tri-	0d\	-ro-	al-	-du-	-qui	-tri-	0B-\	-ro-	al-	-du-	-qui	-tri-	1.d\	Co-	al-	-du-	-qvi	-tri-
!LO:TX:t=P:problem=2\right&colon; global	!	!	!	!	!	!	!	!	!	!	!	!	!	!	!	!	!	!	!	!	!	!	!
2F\	.	.	.	.	.	.	.	.	.	.	.	.	.	.	.	.	.	4e\	-ro-	.	.	.	.
.	.	.	.	.	.	.	.	.	.	.	.	.	.	.	.	.	.	4f\	.	.	.	.	.
1En\	.	.	.	.	.	1c\	-na	-mus	-ca	.	-q(ue)	1c\	-na	-mus	-ca	.	-q(ue)	1g\	.	-m(us)	-ca	.	.
=7	=7	=7	=7	=7	=7	=7	=7	=7	=7	=7	=7	=7	=7	=7	=7	=7	=7	=7	=7	=7	=7	=7	=7
1F\	-na	-mus	-ca	ve-	-q(ue)	1A\	Prae-	cla-	re-	veſ-	glo-	1c\	Prae-	cla-	reſ-	Veſ-	glo-	1a\	-na	cla-	reſ-	ve-	-q(ue)
1.G\	Prae-	cla-	re-	-ſti-	glo-	1.G/	-ſu-	.	.	-ti-	.	1.c\	.	.	-pu-	-ti-	-ri-	1.d\	prae-	.	.	-ſti-	glo-
!	!	!	!	!	!	!	!	!	!	!	!	!LO:N:acc=#	!	!	!	!	!	!	!	!	!	!	!
2G\	-ſu-	-ru-	-ſpu-	-gi-	-ri-	2G/	.	-ru-	-ſpu-	-gi-	-ri-	2Bn\	-ſu-	-ru-	.	-gi-	.	2d\	-ſu-	-ru-	-pu-	-gi-	-ri-
=8	=8	=8	=8	=8	=8	=8	=8	=8	=8	=8	=8	=8	=8	=8	=8	=8	=8	=8-	=8	=8	=8	=8	=8
0.C/	-lum	-it	-ens	-a	-a	0.G/	-lum	-it	-ens	-a	-a	0.c\	-lum	-it	-ens	-a	-a	0.e\	-lu(m)	-it	-ens;	-a	-a,
=9|:	=9:|:	=9:|:	=9:|:	=9:|:	=9:|:	=9|:	=9:|:	=9:|:	=9:|:	=9:|:	=9:|:	=9!|:	=9!|:	=9!|:	=9!|:	=9!|:	=9!|:	=9:|:	=9:|:	=9:|:	=9:|:	=9:|:	=9:|:
1C/	In	Hu-	AE-	Hu-	Cum	1G/	In	Hu-	AE-	Hu-	Cum	1c\	In	Hu-	AE-	Hu-	Cum	1e\	in	Hu-	ae-	hu-	Cu(m)
1D\	hac	-ius	-ter-	-ius	ſpi-	1.d\	hac	-ius	-ter-	-ius	ſpi-	1B-\	hac	-ius	-ter-	-ius	ſpi-	1f\	hac	-jus	-ter-	-jus	ſpi-
1E\	di-	ce-	-ni-	pre-	-ri-	.	.	.	.	.	.	1B-\	di-	ce-	-ni-	pre-	-ri-	1g\	.	ce-	-ni-	prae-	-ri-
*	*	*	*	*	*	*2\right	*	*	*	*	*	*	*	*	*	*	*	*	*	*	*	*	*
.	.	.	.	.	.	2d\	di-	ce-	-ni-	pre-	-ri-	.	.	.	.	.	.	.	.	.	.	.	.
=10	=10	=10	=10	=10	=10	=10	=10	=10	=10	=10	=10	=10	=10	=10	=10	=10	=10	=10	=10	=10	=10	=10	=10
0F\	-e	-le-	-ta-	-ca-	-tu	0c\	-e	-le-	-ta-	-ca-	-tu	0A\	-e	-le-	-ta-	-ca-	-tu	1.a\	di-	-le-	-ta-	-ca-	-tu
.	.	.	.	.	.	.	.	.	.	.	.	.	.	.	.	.	.	2g\	-e	.	.	.	.
1BB-/	cle-	-brat	-tis	-tu	Pa-	1d\	cle-	-brat	-tis	-tu	Pa-	1B-\	cle-	-brat	-tis	-tu	Pa-	1f\	cle-	-brat	-tis	-tu	Pa-
=11	=11	=11	=11	=11	=11	=11	=11	=11	=11	=11	=11	=11	=11	=11	=11	=11	=11	=11	=11	=11	=11	=11	=11
1.C/	-men-	an-	prae-	ſer-	-ra-	1.c\	-men-	an-	prae-	ſer-	-ra-	1.G/	-men-	an-	prae-	ſer-	-ra-	1.e\	-men-	an-	prae-	ſer-	-ra-
!LO:SIC:l:v:s=-cli-:verse5	!	!	!	!	!	!LO:SIC:l:v:s=-cli-:verse5	!	!	!	!	!	!LO:SIC:l:v:s=-cli-:verse5	!	!	!	!	!	!LO:SIC:l:v:s=-cli-:verse5	!	!	!	!	!
2C/	-ti-	-nu-	-mi-	-uu-	-cle-	2c\	-ti-	-nu-	-mi-	-uu-	-cle-	2G/	-ti-	-nu-	-mi-	-uu-	-cle-	2e\	-ti-	-nu-	-mi-	-vu-	-cle-
1C/	-us	-a	-o	-lis	-to	1c\	-us	-a	-o	-lis	-to	1G/	-us	-a	-o	-lis	-to	1e\	-u(s)	-a	-o	-lis,	-to,
=12	=12	=12	=12	=12	=12	=12	=12	=12	=12	=12	=12	=12	=12	=12	=12	=12	=12	=12	=12	=12	=12	=12	=12
1AA/	in-	de-	po-	di-	nunc	1c\	in-	de-	po-	di-	nunc	1c\	in-	de-	po-	di-	nunc	1f\	in-	de-	po-	di-	n(un)c
1BB-/	-dul-	-uo-	-ti-	-mit-	et	1d\	-dul-	-uo-	-ti-	-mit-	et	1B-\	-dul-	-uo-	-ti-	-mit-	et	1d\	-dul-	-vo-	-ti-	-mit-	et
1GG/	-ge-	-ta	-tur	-te	per	1d\	-ge-	-ta	-tur	-te	per	1B-\	.	-ta	-tur	-te	per	1g\	-ge-	-ta	-tur	-te	per
=13	=13	=13	=13	=13	=13	=13	=13	=13	=13	=13	=13	=13	=13	=13	=13	=13	=13	=13-	=13	=13	=13	=13	=13
1.D\	-as	plebs	in-	no-	o-	0d\	-as	plebs	in-	no-	o-	1.A\	-ge-	plebs	in-	no-	o-	2fn\	-as	plebs	in-	no-	o-
.	.	.	.	.	.	.	.	.	.	.	.	.	.	.	.	.	.	2e\	.	.	.	.	.
.	.	.	.	.	.	.	.	.	.	.	.	.	.	.	.	.	.	2f\	.	.	.	.	.
2E\	.	.	.	.	.	.	.	.	.	.	.	2G/	.	.	.	.	.	2g\	.	.	.	.	.
1F\	.	.	-ter	-xam	.	1c\	pre-	ſo-	-ter	-xam	-mne	2A/	.	.	.	.	.	1a\	prae-	.	-ter	-xam	-mne
.	.	.	.	.	.	.	.	.	.	.	.	2B-/	.	.	.	.	.	.	.	.	.	.	.
=14	=14	=14	=14	=14	=14	=14	=14	=14	=14	=14	=14	=14	=14	=14	=14	=14	=14	=14	=14	=14	=14	=14	=14
1AA/	pre-	so-	An-	Cri-	-mne	1c\	-can-	-len-	An-	Cri-	ſae-	2c\	-as	.	.	.	.	1f\	.	so-	an-	Cri-	ſae-
.	.	.	.	.	.	.	.	.	.	.	.	2c\	pre-	ſo-	-ter	-xam	-mne	.	.	.	.	.	.
1.C/	-can-	-len-	.	.	ſae-	1.c\	-ti-	-ni-	-ge-	-mi-	-cu-	1.G/	-can-	-len-	An-	cri-	ſae-	1.f\	-can-	-lem-	-ge-	-mi-	-cu-
2C/	-ti-	-ni-	-ge-	-mi-	-cu-	2B-\	.	.	.	.	.	2G/	-ti-	-ni-	-ge-	-mi-	-cu-	2e\	-ti-	-ni-	.	.	.
=15	=15	=15	=15	=15	=15	=15	=15	=15	=15	=15	=15	=15	=15	=15	=15	=15	=15	=15-	=15	=15	=15	=15	=15
!	!	!	!	!	!	!	!	!	!	!	!	!LO:TX:t=P:problem=brak kreski finalnej	!	!	!	!	!	!	!	!	!	!	!
0.FF/;	-bus	-a	-los	-nis	-lum.	0.A\;;	-bus	-a	-los	-nis	-lum.	0.A\;;	-bus	-a	-los	-nis	-lum.	0.f\	-b(us)	-a	-los	-nis	-lu(m).
==	=:|!	=:|!	=:|!	=:|!	=:|!	==	=:|!	=:|!	=:|!	=:|!	=:|!	==	=:|!	=:|!	=:|!	=:|!	=:|!	=:|!	=:|!	=:|!	=:|!	=:|!	=:|!
*-	*-	*-	*-	*-	*-	*-	*-	*-	*-	*-	*-	*-	*-	*-	*-	*-	*-	*-	*-	*-	*-	*-	*-
!!!system-decoration: [(s1,s2,s3,s4)]
!!!EED: Andrzej Borzym
!!!EEV: 2021-04-06
!!!ENC: Mateusz Solarz
!!!END: 2021-03-24
!!!YEC: Copyright 2022 Narodowy Instytut Fryderyka Chopina (https://polishscores.org)
!!!YEM: Licence CC BY 4.0 (https://creativecommons.org/licenses/by/4.0)
